src/assets/svg/module5.svg

<svg enable-background="new 0 0 860 299" viewBox="0 0 860 299" xmlns="http://www.w3.org/2000/svg"><path d="m6.8 3c-1.9 0-3.8 1.2-3.8 3.1v286c0 1.9 1.9 3.9 3.8 3.9h283.1l-.9-293z" fill="#303030"/><path d="m845 296c6.8 0 12-5.9 12-12.6v-268.5c0-6.8-5.3-11.9-12-11.9h-557v293.3z" fill="#3f4040"/><path d="m845 0h-559-279.2c-3.6 0-6.8 2.5-6.8 6.1v286c0 3.6 3.2 6.9 6.8 6.9h281.2 557c8.4 0 15-7.2 15-15.6v-268.5c0-8.4-6.6-14.9-15-14.9zm12 283.4c0 6.8-5.3 12.6-12 12.6h-838.2c-1.9 0-3.8-1.9-3.8-3.9v-286c0-1.9 1.9-3.1 3.8-3.1h838.2c6.8 0 12 5.1 12 11.9z" fill="#808080"/><path d="m672.7 219.6h-43c-2.8 0-5-2.2-5-5v-130.6c0-2.8 2.2-5 5-5h43c2.8 0 5 2.2 5 5v130.6c0 2.8-2.2 5-5 5z" fill="#303030"/><path d="m624.7 214.7v-62.1c0-2.7 2.2-5 5-5h43.1c2.7 0 5 2.2 5 5v62.1c0 2.7-2.2 5-5 5h-43.1c-2.8-.1-5-2.3-5-5z" fill="#808080"/><path d="m795.7 219.6h-43c-2.8 0-5-2.2-5-5v-130.6c0-2.8 2.2-5 5-5h43c2.8 0 5 2.2 5 5v130.6c0 2.8-2.2 5-5 5z" fill="#303030"/><path d="m747.7 214.7v-62.1c0-2.7 2.2-5 5-5h43.1c2.7 0 5 2.2 5 5v62.1c0 2.7-2.2 5-5 5h-43.1c-2.8-.1-5-2.3-5-5z" fill="#808080"/><circle cx="430" cy="149.3" fill="#282828" r="70.5"/><path d="m430 109.3c-22.1 0-40 17.9-40 40s17.9 40 40 40 40-17.9 40-40-17.9-40-40-40z" fill="#4d4d4d"/><circle cx="140.2" cy="149.3" fill="#282828" r="70.5"/><path d="m140.2 109.3c-22.1 0-40 17.9-40 40s17.9 40 40 40 40-17.9 40-40-17.9-40-40-40z" fill="#808080"/></svg>

<?xml version="1.0" encoding="utf-8"?>
<!-- Generator: Adobe Illustrator 18.0.0, SVG Export Plug-In . SVG Version: 6.00 Build 0)  -->
<!DOCTYPE svg PUBLIC "-//W3C//DTD SVG 1.1//EN" "http://www.w3.org/Graphics/SVG/1.1/DTD/svg11.dtd">
<svg version="1.1" id="Layer_1" xmlns="http://www.w3.org/2000/svg" xmlns:xlink="http://www.w3.org/1999/xlink" x="0px" y="0px"
	 viewBox="0 0 860 299" enable-background="new 0 0 860 299" xml:space="preserve">
<g id="am5-bg">
	<path fill="#303030" d="M6.8,3C4.9,3,3,4.2,3,6.1v286c0,1.9,1.9,3.9,3.8,3.9h283.1L289,3H6.8z"/>
	<path fill="#3F4040" d="M845,296c6.8,0,12-5.9,12-12.6V14.9C857,8.1,851.7,3,845,3H288l0,293.3L845,296z"/>
	<path id="am5-bg-outline" fill="#808080" d="M845,0H286H6.8C3.2,0,0,2.5,0,6.1v286c0,3.6,3.2,6.9,6.8,6.9H288h557
		c8.4,0,15-7.2,15-15.6V14.9C860,6.5,853.4,0,845,0z M857,283.4c0,6.8-5.3,12.6-12,12.6H6.8c-1.9,0-3.8-1.9-3.8-3.9V6.1
		C3,4.2,4.9,3,6.8,3H845c6.8,0,12,5.1,12,11.9V283.4z"/>
</g>
<g id="am5-switch-2">
	<g>
		<path fill="#303030" d="M672.7,219.6h-43c-2.8,0-5-2.2-5-5V84c0-2.8,2.2-5,5-5h43c2.8,0,5,2.2,5,5v130.6
			C677.7,217.4,675.5,219.6,672.7,219.6z"/>
	</g>
	<g id="am5-trigger-2_1_">
		<path fill="#808080" d="M624.7,214.7v-62.1c0-2.7,2.2-5,5-5h43.1c2.7,0,5,2.2,5,5v62.1c0,2.7-2.2,5-5,5h-43.1
			C626.9,219.6,624.7,217.4,624.7,214.7z"/>
	</g>
</g>
<g id="am5-switch-1">
	<g>
		<path fill="#303030" d="M795.7,219.6h-43c-2.8,0-5-2.2-5-5V84c0-2.8,2.2-5,5-5h43c2.8,0,5,2.2,5,5v130.6
			C800.7,217.4,798.5,219.6,795.7,219.6z"/>
	</g>
	<g id="am5-trigger-1_1_">
		<path fill="#808080" d="M747.7,214.7v-62.1c0-2.7,2.2-5,5-5h43.1c2.7,0,5,2.2,5,5v62.1c0,2.7-2.2,5-5,5h-43.1
			C749.9,219.6,747.7,217.4,747.7,214.7z"/>
	</g>
</g>
<g id="am5-button-2">
	<circle fill="#282828" cx="430" cy="149.3" r="70.5"/>
	<path id="am5-trigger-2" fill="#4D4D4D" d="M430,109.3c-22.1,0-40,17.9-40,40s17.9,40,40,40c22.1,0,40-17.9,40-40
		S452.1,109.3,430,109.3z"/>
</g>
<g id="am5-button-1">
	<circle fill="#282828" cx="140.2" cy="149.3" r="70.5"/>
	<path id="am5-trigger-1" fill="#808080" d="M140.2,109.3c-22.1,0-40,17.9-40,40s17.9,40,40,40s40-17.9,40-40
		S162.3,109.3,140.2,109.3z"/>
</g>
</svg>
